!! 00000] TT[00
!! NN
!!!OTL: Sanyue li lai hao fengguang
!!!ARE: Asia, China,ÿTaiwan
!! Ethnic Group: Han
!! IV, 641
!!!SCT: C0451
!!!YEM: Copyright 1995, estate of Helmut Schaffrath.
**kern
*ICvox
*Ivox
*M2/4
*k[f#c#g#d#]
*E:
{8g#
4.cc#
=1
8g#
4cc#
8g#
=2
16e#
16g#
16g#
16e
4c#}
=3
{8g#
8cc#
8cc#
8g#
=4
8c#
4e
16g#
16e
=5
4.c#
8r}
=6
{8.g#
16cc#
8cc#
8g#
=7
8c#
4e
8g#
=8
8cc#
16cc#
16ee
8cc#
8r}
=9
{8cc#
8g#
16cc#
16ee
8gg#
=10
8b#
4cc#
8b#
=11
4.g#
8r}
=12
{8cc#
8g#
8.cc#
16g#
=13
8cc#
4cc#
8g#
=14
8g#
16e#
16g#
4c#}
=15
{8g#
8cc#
8cc#
8g#
=16
8c#
4e
16g#
16e
=17
2c#}
=18
{8.g#
16cc#
8cc#
8g#
=19
8c#
4e
8g#
=20
8cc#
16cc#
16ee
8cc#
8r}
=21
{8cc#
8g#
16cc#
16ee
8gg#
=22
8b#
4cc#
8b#
=23
4.g#
8r}
==
!!!AGN: Shange, Kejia shange, Shangezai
!! Anmerkung von Nr. 443 gilt auch hier!
!!!ONB: ESAC (Essen Associative Code) Database: CHINA
!!!AMT: simple duple
!!!AIN: vox
!!!EED: Helmut Schaffrath
!!!EEV: 1.0
*-
